X:1
T:Al heeft hij ons verlaten
T:Al heeft hij ons verlaten
T:Willem jan Hanegraaf
T:© wjhanegraaf 2007
T:© wjhanegraaf 2007
C:Willem jan Hanegraaf
Z:© wjhanegraaf 2007
%%score [ 1 2 3 4 ]
L:1/8
Q:1/4=101
M:4/4
K:Gmin
V:1 treble nm="Soprano" snm="S"
V:2 treble nm="Alto" snm="A"
V:3 bass-8 nm="Tenor" snm="T"
V:4 bass nm="Bass" snm="B"
V:1
"^1" D2 G2 ^F2 G2 | A2 B4 A2 | c2 B2 A2 G2 | ^F2 G6 | D2 G2 ^F2 G2 | A2 B4 A2 | c2 B2 A2 G2 | %7
w: Al heeft hij ons|ver lat ten|hij laat ons nooit|al leen|wat wij in hem|be zat ten|is al tijd om|
 ^F2 G6 | G2 c2 B2 A2 | A2 A4 G2 | G2 c2 B2 A2 | G2 ^F6 | ^F2 G2 F2 G2 | A2 B4 A2 | c2 B2 A2 G2 | %15
w: ons heen|als zon lich om|de bloe men|een moe der om|haar kind|te veel om op|te noe men|zijn wij door hem|
 ^F2 G6 :| %16
w: be mind|
V:2
 D2 D2 D2 D2 | ^F2 G4 F2 | G2 G2 ^F2 E2 | D2 D6 | D2 D2 D2 D2 | ^F2 G4 F2 | G2 G2 ^F2 E2 | D2 D6 | %8
w: Al is hij op|ge no men|houd in her in|ne ring|dat hij te rug|zal ko men|zo als hij van|ons ging|
 D2 G2 G2 ^F2 | ^F2 F4 D2 | D2 G2 G2 ^F2 | D2 D6 | D2 D2 D2 D2 | ^F2 G4 F2 | G2 G2 ^F2 E2 | %15
w: Wij lev ven van|ver trou wen|dat wij zijn ma|jes teit|van oog tot oog|aan schou wen|in al le eeu|
 D2 D6 :| %16
w: wig heid|
V:3
"^2" D,2 B,2 A,2 B,2 | D2 D4 D2 | E2 D2 D2 C2 | A,2 B,6 | D,2 B,2 A,2 B,2 | D2 D4 D2 | %6
 E2 D2 D2 C2 | A,2 B,6 | B,2 E2 D2 D2 | D2 D4 B,2 | B,2 E2 D2 D2 | B,2 A,6 | A,2 B,2 A,2 B,2 | %13
 D2 D4 D2 | E2 D2 D2 C2 | A,2 B,6 :| %16
V:4
 D,2 G,2 D,2 G,2 | D,2 G,4 D,2 | C,2 G,2 D,2 C,2 | D,2 G,6 | D,2 G,2 D,2 G,2 | D,2 G,4 D,2 | %6
 C,2 G,2 D,2 C,2 | D,2 G,6 | G,2 C,2 G,2 D,2 | D,2 D,4 G,2 | G,2 C,2 G,2 D,2 | G,2 D,6 | %12
 D,2 G,2 D,2 G,2 | D,2 G,4 D,2 | C,2 G,2 D,2 C,2 | D,2 G,6 :| %16

